icons/mouse.svg

<?xml version="1.0" encoding="UTF-8"?>
<svg width="50" height="50" version="1.1" viewBox="0 0 50 50" xmlns="http://www.w3.org/2000/svg">
<path d="m21.25 5s-11.25 0-11.25 11.25v2.5h13.75v-13.75h-2.5zm5 0v13.75h13.75v-2.5c0-11.25-11.25-11.25-11.25-11.25h-2.5zm-16.25 17.5v10s0 12.5 12.5 12.5h5s12.5 0 12.5-12.5v-10h-30z"/>
</svg>

<?xml version="1.0" encoding="UTF-8" standalone="no"?>
<svg
   xmlns:dc="http://purl.org/dc/elements/1.1/"
   xmlns:cc="http://creativecommons.org/ns#"
   xmlns:rdf="http://www.w3.org/1999/02/22-rdf-syntax-ns#"
   xmlns:svg="http://www.w3.org/2000/svg"
   xmlns="http://www.w3.org/2000/svg"
   id="svg4"
   viewBox="0 0 50 50"
   version="1.1"
   width="50"
   height="50">
  <metadata
     id="metadata10">
    <rdf:RDF>
      <cc:Work
         rdf:about="">
        <dc:format>image/svg+xml</dc:format>
        <dc:type
           rdf:resource="http://purl.org/dc/dcmitype/StillImage" />
        <dc:title></dc:title>
      </cc:Work>
    </rdf:RDF>
  </metadata>
  <defs
     id="defs8" />
  <path
     id="path3992"
     d="M 21.25 5 C 21.25 5 10 5 10 16.25 L 10 18.75 L 23.75 18.75 L 23.75 5 L 21.25 5 z M 26.25 5 L 26.25 18.75 L 40 18.75 L 40 16.25 C 40 5 28.75 5 28.75 5 L 26.25 5 z M 10 22.5 L 10 32.5 C 10 32.5 10 45 22.5 45 L 27.5 45 C 27.5 45 40 45 40 32.5 L 40 22.5 L 10 22.5 z " />
</svg>
